Origami/64x64/apps/portal2.svg

<svg width="64" height="64" version="1" xmlns="http://www.w3.org/2000/svg">
 <circle cx="32" cy="32" r="28" style="fill:#56aad4"/>
 <path d="m32.0005 4.998c1.010018 0 2.002036 0.0624 2.980054 0.168a28.0005 28 0 0 0 -2.980054 -0.168zm-1.864034 0.0664a28.0005 28 0 0 0 -0.55801 0.0586c0.188-0.017 0.370008-0.0454 0.55801-0.0586zm5.904106 0.2618c0.648012 0.0956 1.296024 0.1964 1.928036 0.3358a28.0005 28 0 0 0 -1.928036 -0.3358zm-8.204146 0.0078a28.0005 28 0 0 0 -1.13202 0.1914c0.374006-0.0734 0.752012-0.1328 1.13202-0.1914zm-2.394044 0.4764c-0.224004 0.0542-0.454008 0.0974-0.676012 0.1564l0.03 0.0312a28.0005 28 0 0 1 0.64601 -0.1876zm-0.64601 0.1876a28.0005 28 0 0 0 -2.17804 0.6484l12.78823 12.7896a14.00025 14 0 0 0 -3.406062 -0.438h-24.222433a28.0005 28 0 0 0 -1.0398186 2h18.082124a14.00025 14 0 0 0 -2.714048 2.106l-4e-3 -4e-3 -16.660899 16.66a28.0005 28 0 0 0 0.7656136 2.062l12.230819-12.23a14.00025 14 0 0 0 -0.437608 3.406v22.222a28.0005 28 0 0 0 2.000036 1.04v-16.082a14.00025 14 0 0 0 2.106038 2.714l-4e-3 4e-3 15.504276 15.504a28.0005 28 0 0 0 2.276042 -0.55l-11.288202-11.29a14.00025 14 0 0 0 3.40606 0.438h22.964412a28.0005 28 0 0 0 1.258022 -2h-17.042306a14.00025 14 0 0 0 2.71405 -2.106l4e-3 4e-3 17.102306-17.102a28.0005 28 0 0 0 -0.648012 -2.178l-12.79023 12.788a14.00025 14 0 0 0 0.438008 -3.406v-24.222a28.0005 28 0 0 0 -2.000036 -1.0398v18.0818a14.00025 14 0 0 0 -2.106036 -2.714l4e-3 -4e-3 -17.102306-17.102zm34.204612 19.796a28.0005 28 0 0 1 0.188 0.646c-0.054-0.224-0.098-0.454-0.156-0.676l-0.032 0.03zm-20.07436-19.8898c0.658012 0.1696 1.310024 0.348 1.950036 0.5626a28.0005 28 0 0 0 -1.950036 -0.5626zm-16.544296 0.8204a28.0005 28 0 0 0 -1.428026 0.578c0.47201-0.2022 0.944018-0.4012 1.428026-0.578zm19.352346 0.0586c0.650012 0.242 1.292024 0.4986 1.918034 0.7852a28.0005 28 0 0 0 -1.918034 -0.7852zm-21.870391 1.0116a28.0005 28 0 0 0 -1.183621 0.6056c0.389207-0.2102 0.783614-0.4134 1.183621-0.6056zm-2.363242 1.2814a28.0005 28 0 0 0 -1.082019 0.6836c0.354406-0.2374 0.716212-0.4624 1.082019-0.6836zm29.668531 0.4178c0.248004 0.1606 0.506008 0.3086 0.750014 0.4766a28.0005 28 0 0 0 -0.750014 -0.4766zm-31.86857 1.0664a28.0005 28 0 0 0 -1.004018 0.7658c0.325805-0.2658 0.666211-0.5146 1.004018-0.7658zm-2.117238 1.7422a28.0005 28 0 0 0 -0.828215 0.7578c0.266605-0.2624 0.55121-0.506 0.828215-0.7578zm38.754692 1.0508c0.262006 0.2666 0.50601 0.5512 0.758014 0.8282a28.0005 28 0 0 0 -0.758014 -0.8282zm1.734032 1.9414c0.266004 0.3258 0.51401 0.6662 0.766014 1.004a28.0005 28 0 0 0 -0.766014 -1.004zm-44.684799 1.7656a28.0005 28 0 0 0 -0.5272094 0.8282c0.176802-0.2756 0.341206-0.5592 0.5272094-0.8282zm46.250827 0.3556c0.238004 0.3544 0.462008 0.7162 0.684012 1.082a28.0005 28 0 0 0 -0.684012 -1.082zm1.368024 2.274c0.204004 0.376 0.402008 0.756 0.590012 1.144a28.0005 28 0 0 0 -0.590012 -1.144zm-50.036895 1.656a28.0005 28 0 0 0 -0.785214 1.918c0.2420044-0.65 0.498609-1.292 0.785214-1.918zm51.138915 0.632c0.196 0.462 0.392008 0.924 0.56601 1.398a28.0005 28 0 0 0 -0.56601 -1.398zm-52.240934 2.144a28.0005 28 0 0 0 -0.56261 1.95c0.169604-0.658 0.3480062-1.31 0.56261-1.95zm-0.8048144 2.908a28.0005 28 0 0 0 -0.335806 1.928c0.095602-0.648 0.196404-1.296 0.335806-1.928zm54.808981 0.664c0.078 0.396 0.138 0.796 0.200004 1.198a28.0005 28 0 0 0 -0.200004 -1.198zm-55.30499 2.324a28.0005 28 0 0 0 -0.129002 2.12 28.0005 28 0 0 0 4e-3 0.086c0.023-0.74 0.0468-1.482 0.125002-2.206zm55.700996 0.484c0.018 0.212 0.05 0.42 0.066 0.632a28.0005 28 0 0 0 -0.066 -0.632z" style="opacity:.2"/>
 <path d="m32.0012 4c1.01 0 2.002 0.0624 2.98 0.168a28 28 0 0 0 -2.98 -0.168zm-1.864 0.0664a28 28 0 0 0 -0.558 0.0586c0.188-0.017 0.37-0.0454 0.558-0.0586zm5.904 0.2618c0.648 0.0956 1.296 0.1964 1.928 0.3358a28 28 0 0 0 -1.928 -0.3358zm-8.204 0.0078a28 28 0 0 0 -1.132 0.1914c0.374-0.0734 0.752-0.1328 1.132-0.1914zm-2.394 0.4764a28 28 0 0 0 -2.824 0.836l12.788 12.7892a14 14 0 0 0 -3.406 -0.4376h-24.222a28 28 0 0 0 -1.0398 2h18.0818a14 14 0 0 0 -2.714 2.106l-4e-3 -4e-3 -17.1332 17.132c-0.059-0.222-0.1022-0.452-0.1564-0.676a28 28 0 0 0 0.836 2.824l12.7892-12.788a14 14 0 0 0 -0.4376 3.406v24.222a28 28 0 0 0 2 1.04v-18.082a14 14 0 0 0 2.106 2.714l-4e-3 4e-3 17.132 17.134c-0.21 0.056-0.428 0.096-0.64 0.148a28 28 0 0 0 2.788 -0.828l-12.788-12.79a14 14 0 0 0 3.406 0.438h24.222a28 28 0 0 0 1.04 -2h-18.082a14 14 0 0 0 2.714 -2.106l4e-3 4e-3 17.134-17.132c0.058 0.222 0.102 0.452 0.156 0.676a28 28 0 0 0 -0.836 -2.824l-12.79 12.788a14 14 0 0 0 0.438 -3.406v-24.222a28 28 0 0 0 -2 -1.0398v18.0818a14 14 0 0 0 -2.106 -2.714l4e-3 -4e-3 -17.132-17.1332c0.222-0.059 0.452-0.1022 0.676-0.1564zm13.484 0.0938c0.658 0.1696 1.31 0.348 1.95 0.5626a28 28 0 0 0 -1.95 -0.5626zm-16.544 0.8204a28 28 0 0 0 -1.428 0.578c0.472-0.2022 0.944-0.4012 1.428-0.578zm19.352 0.0586c0.65 0.242 1.292 0.4986 1.918 0.7852a28 28 0 0 0 -1.918 -0.7852zm-21.87 1.0116a28 28 0 0 0 -1.1836 0.6056c0.3892-0.2102 0.7836-0.4134 1.1836-0.6056zm-2.3632 1.2814a28 28 0 0 0 -1.082 0.6836c0.3544-0.2374 0.7162-0.4624 1.082-0.6836zm29.668 0.4178c0.248 0.1606 0.506 0.3086 0.75 0.4766a28 28 0 0 0 -0.75 -0.4766zm-31.868 1.0664a28 28 0 0 0 -1.004 0.7658c0.3258-0.2658 0.6662-0.5146 1.004-0.7658zm-2.1172 1.7422a28 28 0 0 0 -0.8282 0.7578c0.2666-0.2624 0.5512-0.506 0.8282-0.7578zm38.754 1.0508c0.262 0.2666 0.506 0.5512 0.758 0.8282a28 28 0 0 0 -0.758 -0.8282zm1.734 1.9414c0.266 0.3258 0.514 0.6662 0.766 1.004a28 28 0 0 0 -0.766 -1.004zm-44.684 1.7656a28 28 0 0 0 -0.5272 0.8282c0.1768-0.2756 0.3412-0.5592 0.5272-0.8282zm46.25 0.3556c0.238 0.3544 0.462 0.7162 0.684 1.082a28 28 0 0 0 -0.684 -1.082zm1.368 2.2734c0.204 0.3774 0.402 0.7568 0.59 1.1446a28 28 0 0 0 -0.59 -1.1446zm-50.036 1.6566a28 28 0 0 0 -0.7852 1.918c0.242-0.65 0.4986-1.292 0.7852-1.918zm51.138 0.632c0.196 0.462 0.392 0.924 0.566 1.398a28 28 0 0 0 -0.566 -1.398zm-52.24 2.144a28 28 0 0 0 -0.5626 1.95c0.1696-0.658 0.348-1.31 0.5626-1.95zm-0.8048 2.908a28 28 0 0 0 -0.3358 1.928c0.0956-0.648 0.1964-1.296 0.3358-1.928zm54.808 0.664c0.078 0.396 0.138 0.796 0.2 1.198a28 28 0 0 0 -0.2 -1.198zm-55.304 2.324a28 28 0 0 0 -0.168 2.98c0-1.01 0.0624-2.002 0.168-2.98zm55.7 0.484c0.018 0.212 0.05 0.42 0.066 0.632a28 28 0 0 0 -0.066 -0.632zm0.132 2.496c0 1.022-0.068 2.028-0.176 3.02a28 28 0 0 0 0.176 -3.02zm-55.934 1.918a28 28 0 0 0 0.0352 0.336c-0.0096-0.112-0.027-0.224-0.0352-0.336zm55.626 1.984c-0.1 0.698-0.206 1.392-0.356 2.07a28 28 0 0 0 0.356 -2.07zm-55.356 0.262a28 28 0 0 0 0.1914 1.132c-0.0734-0.374-0.1328-0.752-0.1914-1.132zm54.766 2.734c-0.176 0.684-0.366 1.362-0.59 2.024a28 28 0 0 0 0.59 -2.024zm-53.376 2.716a28 28 0 0 0 0.6094 1.5c-0.2136-0.496-0.424-0.992-0.6094-1.5zm52.516 0.05c-0.25 0.676-0.518 1.344-0.816 1.996a28 28 0 0 0 0.816 -1.996zm-51.472 2.414a28 28 0 0 0 0.668 1.308c-0.2334-0.428-0.4568-0.866-0.668-1.308zm1.2694 2.36a28 28 0 0 0 0.7578 1.19c-0.2624-0.39-0.5146-0.786-0.7578-1.19zm47.464 0.73c-0.16 0.248-0.308 0.506-0.476 0.75a28 28 0 0 0 0.476 -0.75zm-45.98 1.48a28 28 0 0 0 0.8086 1.062c-0.2814-0.344-0.5436-0.704-0.8086-1.062zm1.7812 2.168a28 28 0 0 0 0.7578 0.828c-0.2624-0.266-0.506-0.55-0.7578-0.828zm40.34 1.122c-0.248 0.244-0.514 0.47-0.772 0.706a28 28 0 0 0 0.772 -0.706zm-1.964 1.758c-0.298 0.242-0.61 0.468-0.918 0.698a28 28 0 0 0 0.918 -0.698zm-33.618 1.316a28 28 0 0 0 0.8282 0.528c-0.2756-0.178-0.5592-0.342-0.8282-0.528zm31.496 0.242c-0.342 0.228-0.694 0.446-1.046 0.66a28 28 0 0 0 1.046 -0.66zm-2.25 1.352c-0.376 0.204-0.756 0.402-1.144 0.59a28 28 0 0 0 1.144 -0.59zm-24.96 0.824a28 28 0 0 0 1.918 0.784c-0.65-0.242-1.292-0.498-1.918-0.784zm22.672 0.278c-0.462 0.196-0.924 0.392-1.398 0.566a28 28 0 0 0 1.398 -0.566zm-19.896 0.824a28 28 0 0 0 1.95 0.562c-0.658-0.17-1.31-0.348-1.95-0.562zm2.904 0.804a28 28 0 0 0 2.07 0.356c-0.698-0.1-1.392-0.206-2.07-0.356zm11.258 0.14c-0.37 0.072-0.744 0.13-1.118 0.188a28 28 0 0 0 1.118 -0.188zm-8.306 0.348a28 28 0 0 0 3.02 0.176c-1.022 0-2.028-0.068-3.02-0.176zm5.442 0.052c-0.188 0.016-0.37 0.044-0.558 0.058a28 28 0 0 0 0.558 -0.058z" style="fill:#ffffff"/>
 <path d="M 31.998047 4 A 28 28 0 0 0 4 32 A 28 28 0 0 0 4.0175781 32.492188 A 28 28 0 0 1 31.998047 5 L 32 5 A 28 28 0 0 1 59.972656 32.5 A 28 28 0 0 0 59.998047 32 A 28 28 0 0 0 32 4 L 31.998047 4 z" style="fill:#ffffff;opacity:.2"/>
 <path d="M 59.957031 32.828125 A 28 28 0 0 1 32 60 A 28 28 0 0 1 4.0449219 33.171875 A 28 28 0 0 0 4 34 A 28 28 0 0 0 4.0253906 34.519531 A 28 28 0 0 1 4.0449219 34.171875 A 28 28 0 0 0 32 61 A 28 28 0 0 0 59.957031 33.828125 A 28 28 0 0 1 59.982422 34.507812 A 28 28 0 0 0 60 34 A 28 28 0 0 0 59.957031 32.828125 z" style="opacity:.2"/>
 <circle cx="48" cy="46" r="16" style="fill:#ba22ff"/>
 <path d="M 63.957031 46.847656 A 16 16 0 0 1 48 62 A 16 16 0 0 1 32.042969 47.152344 A 16 16 0 0 0 32 48 A 16 16 0 0 0 32.025391 48.501953 A 16 16 0 0 1 32.042969 48.152344 A 16 16 0 0 0 48 63 A 16 16 0 0 0 63.957031 47.847656 A 16 16 0 0 1 63.982422 48.507812 A 16 16 0 0 0 64 48 A 16 16 0 0 0 63.957031 46.847656 z" style="opacity:.2"/>
 <path d="m54.000001 52h-10l7-8s1-4-3-4-4 3-4 3" style="fill:none;stroke-linejoin:round;stroke-width:4;stroke:#ffffff"/>
</svg>

<svg xmlns="http://www.w3.org/2000/svg" width="64" height="64" version="1">
 <circle style="fill:#56aad4" cx="32" cy="32" r="28"/>
 <path style="opacity:0.2" d="m 32.0005,4.998 c 1.010018,0 2.002036,0.0624 2.980054,0.168 A 28.0005,28 0 0 0 32.0005,4.998 Z m -1.864034,0.0664 a 28.0005,28 0 0 0 -0.55801,0.0586 c 0.188,-0.017 0.370008,-0.0454 0.55801,-0.0586 z m 5.904106,0.2618 c 0.648012,0.0956 1.296024,0.1964 1.928036,0.3358 A 28.0005,28 0 0 0 36.040572,5.3262 Z M 27.836426,5.334 a 28.0005,28 0 0 0 -1.13202,0.1914 C 27.078412,5.452 27.456418,5.3926 27.836426,5.334 Z M 25.442382,5.8104 C 25.218378,5.8646 24.988374,5.9078 24.76637,5.9668 l 0.03,0.0312 a 28.0005,28 0 0 1 0.64601,-0.1876 z m -0.64601,0.1876 a 28.0005,28 0 0 0 -2.17804,0.6484 L 35.406562,19.436 A 14.00025,14 0 0 0 32.0005,18.998 l -24.222433,0 a 28.0005,28 0 0 0 -1.0398186,2 l 18.0821236,0 a 14.00025,14 0 0 0 -2.714048,2.106 L 22.102324,23.1 5.4414252,39.76 a 28.0005,28 0 0 0 0.7656136,2.062 L 18.437858,29.592 a 14.00025,14 0 0 0 -0.437608,3.406 l 0,22.222 a 28.0005,28 0 0 0 2.000036,1.04 l 0,-16.082 a 14.00025,14 0 0 0 2.106038,2.714 l -0.004,0.004 L 37.6066,58.4 a 28.0005,28 0 0 0 2.276042,-0.55 L 28.59444,46.56 a 14.00025,14 0 0 0 3.40606,0.438 l 22.964412,0 a 28.0005,28 0 0 0 1.258022,-2 l -17.042306,0 a 14.00025,14 0 0 0 2.71405,-2.106 l 0.004,0.004 17.102306,-17.102 a 28.0005,28 0 0 0 -0.648012,-2.178 l -12.79023,12.788 a 14.00025,14 0 0 0 0.438008,-3.406 l 0,-24.222 A 28.0005,28 0 0 0 44.000714,7.7362 l 0,18.0818 A 14.00025,14 0 0 0 41.894678,23.104 L 41.898678,23.1 24.796372,5.998 Z m 34.204612,19.796 a 28.0005,28 0 0 1 0.188,0.646 c -0.054,-0.224 -0.098,-0.454 -0.156,-0.676 l -0.032,0.03 z M 38.926624,5.9042 c 0.658012,0.1696 1.310024,0.348 1.950036,0.5626 A 28.0005,28 0 0 0 38.926624,5.9042 Z M 22.382328,6.7246 a 28.0005,28 0 0 0 -1.428026,0.578 c 0.47201,-0.2022 0.944018,-0.4012 1.428026,-0.578 z m 19.352346,0.0586 c 0.650012,0.242 1.292024,0.4986 1.918034,0.7852 A 28.0005,28 0 0 0 41.734674,6.7832 Z M 19.864283,7.7948 A 28.0005,28 0 0 0 18.680662,8.4004 C 19.069869,8.1902 19.464276,7.987 19.864283,7.7948 Z M 17.501041,9.0762 A 28.0005,28 0 0 0 16.419022,9.7598 C 16.773428,9.5224 17.135234,9.2974 17.501041,9.0762 Z M 47.169572,9.494 c 0.248004,0.1606 0.506008,0.3086 0.750014,0.4766 A 28.0005,28 0 0 0 47.169572,9.494 Z m -31.86857,1.0664 a 28.0005,28 0 0 0 -1.004018,0.7658 c 0.325805,-0.2658 0.666211,-0.5146 1.004018,-0.7658 z m -2.117238,1.7422 a 28.0005,28 0 0 0 -0.828215,0.7578 c 0.266605,-0.2624 0.55121,-0.506 0.828215,-0.7578 z m 38.754692,1.0508 c 0.262006,0.2666 0.50601,0.5512 0.758014,0.8282 a 28.0005,28 0 0 0 -0.758014,-0.8282 z m 1.734032,1.9414 c 0.266004,0.3258 0.51401,0.6662 0.766014,1.004 a 28.0005,28 0 0 0 -0.766014,-1.004 z M 8.9876886,17.0604 a 28.0005,28 0 0 0 -0.5272094,0.8282 c 0.176802,-0.2756 0.341206,-0.5592 0.5272094,-0.8282 z M 55.238516,17.416 c 0.238004,0.3544 0.462008,0.7162 0.684012,1.082 a 28.0005,28 0 0 0 -0.684012,-1.082 z m 1.368024,2.274 c 0.204004,0.376 0.402008,0.756 0.590012,1.144 A 28.0005,28 0 0 0 56.60654,19.69 Z M 6.5696452,21.346 a 28.0005,28 0 0 0 -0.785214,1.918 c 0.2420044,-0.65 0.498609,-1.292 0.785214,-1.918 z M 57.70856,21.978 c 0.196,0.462 0.392008,0.924 0.56601,1.398 A 28.0005,28 0 0 0 57.70856,21.978 Z M 5.4676256,24.122 a 28.0005,28 0 0 0 -0.56261,1.95 c 0.169604,-0.658 0.3480062,-1.31 0.56261,-1.95 z M 4.6628112,27.03 a 28.0005,28 0 0 0 -0.335806,1.928 c 0.095602,-0.648 0.196404,-1.296 0.335806,-1.928 z m 54.8089808,0.664 c 0.078,0.396 0.138,0.796 0.200004,1.198 A 28.0005,28 0 0 0 59.471792,27.694 Z M 4.1668024,30.018 a 28.0005,28 0 0 0 -0.129002,2.12 28.0005,28 0 0 0 0.004,0.086 c 0.023,-0.74 0.0468,-1.482 0.125002,-2.206 z m 55.7009956,0.484 c 0.018,0.212 0.05,0.42 0.066,0.632 a 28.0005,28 0 0 0 -0.066,-0.632 z"/>
 <path style="fill:#ffffff" d="m 32.0012,4 c 1.01,0 2.002,0.0624 2.98,0.168 A 28,28 0 0 0 32.0012,4 Z m -1.864,0.0664 a 28,28 0 0 0 -0.558,0.0586 c 0.188,-0.017 0.37,-0.0454 0.558,-0.0586 z m 5.904,0.2618 c 0.648,0.0956 1.296,0.1964 1.928,0.3358 a 28,28 0 0 0 -1.928,-0.3358 z m -8.204,0.0078 a 28,28 0 0 0 -1.132,0.1914 c 0.374,-0.0734 0.752,-0.1328 1.132,-0.1914 z m -2.394,0.4764 a 28,28 0 0 0 -2.824,0.836 l 12.788,12.7892 A 14,14 0 0 0 32.0012,18 l -24.222,0 a 28,28 0 0 0 -1.0398,2 l 18.0818,0 a 14,14 0 0 0 -2.714,2.106 L 22.1032,22.102 4.97,39.234 C 4.911,39.012 4.8678,38.782 4.8136,38.558 a 28,28 0 0 0 0.836,2.824 L 18.4388,28.594 A 14,14 0 0 0 18.0012,32 l 0,24.222 a 28,28 0 0 0 2,1.04 l 0,-18.082 a 14,14 0 0 0 2.106,2.714 l -0.004,0.004 17.132,17.134 c -0.21,0.056 -0.428,0.096 -0.64,0.148 a 28,28 0 0 0 2.788,-0.828 L 28.5952,45.562 A 14,14 0 0 0 32.0012,46 l 24.222,0 a 28,28 0 0 0 1.04,-2 l -18.082,0 a 14,14 0 0 0 2.714,-2.106 l 0.004,0.004 17.134,-17.132 c 0.058,0.222 0.102,0.452 0.156,0.676 a 28,28 0 0 0 -0.836,-2.824 l -12.79,12.788 A 14,14 0 0 0 46.0012,32 l 0,-24.222 a 28,28 0 0 0 -2,-1.0398 l 0,18.0818 a 14,14 0 0 0 -2.106,-2.714 l 0.004,-0.004 -17.132,-17.1332 c 0.222,-0.059 0.452,-0.1022 0.676,-0.1564 z m 13.484,0.0938 c 0.658,0.1696 1.31,0.348 1.95,0.5626 a 28,28 0 0 0 -1.95,-0.5626 z m -16.544,0.8204 a 28,28 0 0 0 -1.428,0.578 c 0.472,-0.2022 0.944,-0.4012 1.428,-0.578 z m 19.352,0.0586 c 0.65,0.242 1.292,0.4986 1.918,0.7852 a 28,28 0 0 0 -1.918,-0.7852 z m -21.87,1.0116 A 28,28 0 0 0 18.6816,7.4024 C 19.0708,7.1922 19.4652,6.989 19.8652,6.7968 Z M 17.502,8.0782 A 28,28 0 0 0 16.42,8.7618 C 16.7744,8.5244 17.1362,8.2994 17.502,8.0782 Z M 47.17,8.496 c 0.248,0.1606 0.506,0.3086 0.75,0.4766 A 28,28 0 0 0 47.17,8.496 Z M 15.302,9.5624 a 28,28 0 0 0 -1.004,0.7658 c 0.3258,-0.2658 0.6662,-0.5146 1.004,-0.7658 z m -2.1172,1.7422 a 28,28 0 0 0 -0.8282,0.7578 c 0.2666,-0.2624 0.5512,-0.506 0.8282,-0.7578 z m 38.754,1.0508 c 0.262,0.2666 0.506,0.5512 0.758,0.8282 a 28,28 0 0 0 -0.758,-0.8282 z m 1.734,1.9414 c 0.266,0.3258 0.514,0.6662 0.766,1.004 a 28,28 0 0 0 -0.766,-1.004 z M 8.9888,16.0624 A 28,28 0 0 0 8.4616,16.8906 C 8.6384,16.615 8.8028,16.3314 8.9888,16.0624 Z m 46.25,0.3556 c 0.238,0.3544 0.462,0.7162 0.684,1.082 a 28,28 0 0 0 -0.684,-1.082 z m 1.368,2.2734 c 0.204,0.3774 0.402,0.7568 0.59,1.1446 a 28,28 0 0 0 -0.59,-1.1446 z M 6.5708,20.348 a 28,28 0 0 0 -0.7852,1.918 c 0.242,-0.65 0.4986,-1.292 0.7852,-1.918 z m 51.138,0.632 c 0.196,0.462 0.392,0.924 0.566,1.398 a 28,28 0 0 0 -0.566,-1.398 z m -52.24,2.144 a 28,28 0 0 0 -0.5626,1.95 c 0.1696,-0.658 0.348,-1.31 0.5626,-1.95 z M 4.664,26.032 A 28,28 0 0 0 4.3282,27.96 C 4.4238,27.312 4.5246,26.664 4.664,26.032 Z m 54.808,0.664 c 0.078,0.396 0.138,0.796 0.2,1.198 a 28,28 0 0 0 -0.2,-1.198 z M 4.168,29.02 A 28,28 0 0 0 4,32 c 0,-1.01 0.0624,-2.002 0.168,-2.98 z m 55.7,0.484 c 0.018,0.212 0.05,0.42 0.066,0.632 A 28,28 0 0 0 59.868,29.504 Z M 60,32 c 0,1.022 -0.068,2.028 -0.176,3.02 A 28,28 0 0 0 60,32 Z M 4.066,33.918 a 28,28 0 0 0 0.0352,0.336 C 4.0916,34.142 4.0742,34.03 4.066,33.918 Z m 55.626,1.984 c -0.1,0.698 -0.206,1.392 -0.356,2.07 a 28,28 0 0 0 0.356,-2.07 z M 4.336,36.164 a 28,28 0 0 0 0.1914,1.132 C 4.454,36.922 4.3946,36.544 4.336,36.164 Z m 54.766,2.734 c -0.176,0.684 -0.366,1.362 -0.59,2.024 a 28,28 0 0 0 0.59,-2.024 z M 5.726,41.614 a 28,28 0 0 0 0.6094,1.5 C 6.1218,42.618 5.9114,42.122 5.726,41.614 Z m 52.516,0.05 c -0.25,0.676 -0.518,1.344 -0.816,1.996 a 28,28 0 0 0 0.816,-1.996 z M 6.77,44.078 a 28,28 0 0 0 0.668,1.308 C 7.2046,44.958 6.9812,44.52 6.77,44.078 Z m 1.2694,2.36 a 28,28 0 0 0 0.7578,1.19 C 8.5348,47.238 8.2826,46.842 8.0394,46.438 Z m 47.464,0.73 c -0.16,0.248 -0.308,0.506 -0.476,0.75 a 28,28 0 0 0 0.476,-0.75 z m -45.98,1.48 A 28,28 0 0 0 10.332,49.71 C 10.0506,49.366 9.7884,49.006 9.5234,48.648 Z m 1.7812,2.168 a 28,28 0 0 0 0.7578,0.828 C 11.8,51.378 11.5564,51.094 11.3046,50.816 Z m 40.34,1.122 c -0.248,0.244 -0.514,0.47 -0.772,0.706 a 28,28 0 0 0 0.772,-0.706 z m -1.964,1.758 c -0.298,0.242 -0.61,0.468 -0.918,0.698 a 28,28 0 0 0 0.918,-0.698 z m -33.618,1.316 a 28,28 0 0 0 0.8282,0.528 c -0.2756,-0.178 -0.5592,-0.342 -0.8282,-0.528 z m 31.496,0.242 c -0.342,0.228 -0.694,0.446 -1.046,0.66 a 28,28 0 0 0 1.046,-0.66 z m -2.25,1.352 c -0.376,0.204 -0.756,0.402 -1.144,0.59 a 28,28 0 0 0 1.144,-0.59 z m -24.96,0.824 a 28,28 0 0 0 1.918,0.784 c -0.65,-0.242 -1.292,-0.498 -1.918,-0.784 z m 22.672,0.278 c -0.462,0.196 -0.924,0.392 -1.398,0.566 a 28,28 0 0 0 1.398,-0.566 z m -19.896,0.824 a 28,28 0 0 0 1.95,0.562 c -0.658,-0.17 -1.31,-0.348 -1.95,-0.562 z m 2.904,0.804 a 28,28 0 0 0 2.07,0.356 c -0.698,-0.1 -1.392,-0.206 -2.07,-0.356 z m 11.258,0.14 c -0.37,0.072 -0.744,0.13 -1.118,0.188 a 28,28 0 0 0 1.118,-0.188 z m -8.306,0.348 a 28,28 0 0 0 3.02,0.176 c -1.022,0 -2.028,-0.068 -3.02,-0.176 z m 5.442,0.052 c -0.188,0.016 -0.37,0.044 -0.558,0.058 a 28,28 0 0 0 0.558,-0.058 z"/>
 <path style="opacity:0.2;fill:#ffffff" d="M 31.998047 4 A 28 28 0 0 0 4 32 A 28 28 0 0 0 4.0175781 32.492188 A 28 28 0 0 1 31.998047 5 L 32 5 A 28 28 0 0 1 59.972656 32.5 A 28 28 0 0 0 59.998047 32 A 28 28 0 0 0 32 4 L 31.998047 4 z"/>
 <path style="opacity:0.2" d="M 59.957031 32.828125 A 28 28 0 0 1 32 60 A 28 28 0 0 1 4.0449219 33.171875 A 28 28 0 0 0 4 34 A 28 28 0 0 0 4.0253906 34.519531 A 28 28 0 0 1 4.0449219 34.171875 A 28 28 0 0 0 32 61 A 28 28 0 0 0 59.957031 33.828125 A 28 28 0 0 1 59.982422 34.507812 A 28 28 0 0 0 60 34 A 28 28 0 0 0 59.957031 32.828125 z"/>
 <circle style="fill:#ba22ff" cx="48" cy="46" r="16"/>
 <path style="opacity:0.2" d="M 63.957031 46.847656 A 16 16 0 0 1 48 62 A 16 16 0 0 1 32.042969 47.152344 A 16 16 0 0 0 32 48 A 16 16 0 0 0 32.025391 48.501953 A 16 16 0 0 1 32.042969 48.152344 A 16 16 0 0 0 48 63 A 16 16 0 0 0 63.957031 47.847656 A 16 16 0 0 1 63.982422 48.507812 A 16 16 0 0 0 64 48 A 16 16 0 0 0 63.957031 46.847656 z"/>
 <path style="fill:none;stroke:#ffffff;stroke-width:4;stroke-linejoin:round" d="m 54.000001,52 -10,0 7,-8 c 0,0 1,-4 -3,-4 -4,0 -4,3 -4,3"/>
</svg>
